X: 3
T: Magaloufou
Z: martin clarke
S: https://thesession.org/tunes/11023#setting11023
R: polka
M: 2/4
L: 1/8
K: Emin
B>A Bc|BG EF/G/|A>G AB|AF DE/F/|
G>F GA|GF/E/ DE|F>G FE|D2 E2:|
|:ge Bf|-fd A2|ec Gd|-dc B2|
c>B AB|ce EF|1 G>A BA|G2 F2:|2 G>A GF|F2 E2||


